svg/Tango/apps/internet-group-chat.svg

<?xml version="1.0" encoding="UTF-8" standalone="no"?>
<!-- Created with Inkscape (http://www.inkscape.org/) -->
<svg
   xmlns:dc="http://purl.org/dc/elements/1.1/"
   xmlns:cc="http://creativecommons.org/ns#"
   xmlns:rdf="http://www.w3.org/1999/02/22-rdf-syntax-ns#"
   xmlns:svg="http://www.w3.org/2000/svg"
   xmlns="http://www.w3.org/2000/svg"
   xmlns:xlink="http://www.w3.org/1999/xlink"
   xmlns:sodipodi="http://sodipodi.sourceforge.net/DTD/sodipodi-0.dtd"
   xmlns:inkscape="http://www.inkscape.org/namespaces/inkscape"
   width="48px"
   height="48px"
   id="svg5816"
   sodipodi:version="0.32"
   inkscape:version="0.46"
   sodipodi:docbase="/home/jimmac/src/cvs/tango-icon-theme/scalable/apps"
   sodipodi:docname="internet-group-chat.svg"
   inkscape:output_extension="org.inkscape.output.svg.inkscape">
  <defs
     id="defs3">
    <inkscape:perspective
       sodipodi:type="inkscape:persp3d"
       inkscape:vp_x="0 : 24 : 1"
       inkscape:vp_y="0 : 1000 : 0"
       inkscape:vp_z="48 : 24 : 1"
       inkscape:persp3d-origin="24 : 16 : 1"
       id="perspective42" />
    <radialGradient
       inkscape:collect="always"
       xlink:href="#linearGradient5060"
       id="radialGradient6719"
       gradientUnits="userSpaceOnUse"
       gradientTransform="matrix(-2.774389,0,0,1.969706,112.7623,-872.8854)"
       cx="605.71429"
       cy="486.64789"
       fx="605.71429"
       fy="486.64789"
       r="117.14286" />
    <linearGradient
       inkscape:collect="always"
       id="linearGradient5060">
      <stop
         style="stop-color:black;stop-opacity:1;"
         offset="0"
         id="stop5062" />
      <stop
         style="stop-color:black;stop-opacity:0;"
         offset="1"
         id="stop5064" />
    </linearGradient>
    <radialGradient
       inkscape:collect="always"
       xlink:href="#linearGradient5060"
       id="radialGradient6717"
       gradientUnits="userSpaceOnUse"
       gradientTransform="matrix(2.774389,0,0,1.969706,-1891.633,-872.8854)"
       cx="605.71429"
       cy="486.64789"
       fx="605.71429"
       fy="486.64789"
       r="117.14286" />
    <linearGradient
       id="linearGradient5048">
      <stop
         style="stop-color:black;stop-opacity:0;"
         offset="0"
         id="stop5050" />
      <stop
         id="stop5056"
         offset="0.5"
         style="stop-color:black;stop-opacity:1;" />
      <stop
         style="stop-color:black;stop-opacity:0;"
         offset="1"
         id="stop5052" />
    </linearGradient>
    <linearGradient
       inkscape:collect="always"
       xlink:href="#linearGradient5048"
       id="linearGradient6715"
       gradientUnits="userSpaceOnUse"
       gradientTransform="matrix(2.774389,0,0,1.969706,-1892.179,-872.8854)"
       x1="302.85715"
       y1="366.64789"
       x2="302.85715"
       y2="609.50507" />
    <linearGradient
       inkscape:collect="always"
       id="linearGradient29433">
      <stop
         style="stop-color:#000000;stop-opacity:1;"
         offset="0"
         id="stop29435" />
      <stop
         style="stop-color:#000000;stop-opacity:0;"
         offset="1"
         id="stop29437" />
    </linearGradient>
    <linearGradient
       id="linearGradient29418">
      <stop
         style="stop-color:#f5f5f5;stop-opacity:1.0000000;"
         offset="0.0000000"
         id="stop29420" />
      <stop
         style="stop-color:#e9e9e9;stop-opacity:1.0000000;"
         offset="1.0000000"
         id="stop29422" />
    </linearGradient>
    <linearGradient
       inkscape:collect="always"
       xlink:href="#linearGradient29418"
       id="linearGradient29429"
       gradientUnits="userSpaceOnUse"
       x1="26.011957"
       y1="10.916001"
       x2="39.037319"
       y2="26.257807"
       gradientTransform="matrix(1.007553,0.000000,0.000000,0.987647,-3.071923,0.274607)" />
    <radialGradient
       inkscape:collect="always"
       xlink:href="#linearGradient29433"
       id="radialGradient29439"
       cx="29.496454"
       cy="27.645426"
       fx="29.496454"
       fy="27.645426"
       r="11.515739"
       gradientTransform="matrix(1.000000,0.000000,0.000000,0.346491,-5.177067e-17,18.06653)"
       gradientUnits="userSpaceOnUse" />
    <linearGradient
       inkscape:collect="always"
       xlink:href="#linearGradient29418"
       id="linearGradient29443"
       gradientUnits="userSpaceOnUse"
       gradientTransform="matrix(-0.977228,0.000000,0.000000,0.995878,50.60272,9.115637)"
       x1="35.003674"
       y1="10.957423"
       x2="27.273300"
       y2="24.143761" />
    <linearGradient
       inkscape:collect="always"
       xlink:href="#linearGradient5048"
       id="linearGradient6873"
       gradientUnits="userSpaceOnUse"
       gradientTransform="matrix(2.774389,0,0,1.969706,-1892.179,-872.8854)"
       x1="302.85715"
       y1="366.64789"
       x2="302.85715"
       y2="609.50507" />
    <radialGradient
       inkscape:collect="always"
       xlink:href="#linearGradient5060"
       id="radialGradient6875"
       gradientUnits="userSpaceOnUse"
       gradientTransform="matrix(2.774389,0,0,1.969706,-1891.633,-872.8854)"
       cx="605.71429"
       cy="486.64789"
       fx="605.71429"
       fy="486.64789"
       r="117.14286" />
    <radialGradient
       inkscape:collect="always"
       xlink:href="#linearGradient5060"
       id="radialGradient6877"
       gradientUnits="userSpaceOnUse"
       gradientTransform="matrix(-2.774389,0,0,1.969706,112.7623,-872.8854)"
       cx="605.71429"
       cy="486.64789"
       fx="605.71429"
       fy="486.64789"
       r="117.14286" />
  </defs>
  <sodipodi:namedview
     id="base"
     pagecolor="#ffffff"
     bordercolor="#666666"
     borderopacity="0.13333333"
     inkscape:pageopacity="0.0"
     inkscape:pageshadow="2"
     inkscape:zoom="1"
     inkscape:cx="-127.22708"
     inkscape:cy="-13.353097"
     inkscape:current-layer="layer1"
     showgrid="false"
     inkscape:grid-bbox="true"
     inkscape:document-units="px"
     inkscape:window-width="872"
     inkscape:window-height="743"
     inkscape:window-x="214"
     inkscape:window-y="105"
     inkscape:showpageshadow="false" />
  <metadata
     id="metadata4">
    <rdf:RDF>
      <cc:Work
         rdf:about="">
        <dc:format>image/svg+xml</dc:format>
        <dc:type
           rdf:resource="http://purl.org/dc/dcmitype/StillImage" />
        <dc:title>Group Chat</dc:title>
        <dc:creator>
          <cc:Agent>
            <dc:title>Jakub Steiner</dc:title>
          </cc:Agent>
        </dc:creator>
        <dc:contributor>
          <cc:Agent>
            <dc:title />
          </cc:Agent>
        </dc:contributor>
        <cc:license
           rdf:resource="http://creativecommons.org/licenses/publicdomain/" />
        <dc:subject>
          <rdf:Bag>
            <rdf:li>group</rdf:li>
            <rdf:li>chat</rdf:li>
            <rdf:li>IRC</rdf:li>
            <rdf:li>internet</rdf:li>
            <rdf:li>network</rdf:li>
          </rdf:Bag>
        </dc:subject>
      </cc:Work>
      <cc:License
         rdf:about="http://creativecommons.org/licenses/publicdomain/">
        <cc:permits
           rdf:resource="http://creativecommons.org/ns#Reproduction" />
        <cc:permits
           rdf:resource="http://creativecommons.org/ns#Distribution" />
        <cc:permits
           rdf:resource="http://creativecommons.org/ns#DerivativeWorks" />
      </cc:License>
    </rdf:RDF>
  </metadata>
  <g
     id="layer1"
     inkscape:label="Layer 1"
     inkscape:groupmode="layer">
    <g
       transform="matrix(1.518738e-2,0,0,2.086758e-2,32.5082,31.9036)"
       id="g6707"
       style="opacity:0.62886598">
      <rect
         style="opacity:0.40206185;color:black;fill:url(#linearGradient6715);fill-opacity:1;fill-rule:nonzero;stroke:none;stroke-width:1;stroke-linecap:round;stroke-linejoin:miter;marker:none;marker-start:none;marker-mid:none;marker-end:none;stroke-miterlimit:4;stroke-dasharray:none;stroke-dashoffset:0;stroke-opacity:1;visibility:visible;display:inline;overflow:visible"
         id="rect6709"
         width="1339.6335"
         height="478.35718"
         x="-1559.2523"
         y="-150.69685" />
      <path
         style="opacity:0.40206185;color:black;fill:url(#radialGradient6717);fill-opacity:1;fill-rule:nonzero;stroke:none;stroke-width:1;stroke-linecap:round;stroke-linejoin:miter;marker:none;marker-start:none;marker-mid:none;marker-end:none;stroke-miterlimit:4;stroke-dasharray:none;stroke-dashoffset:0;stroke-opacity:1;visibility:visible;display:inline;overflow:visible"
         d="M -219.61876,-150.68038 C -219.61876,-150.68038 -219.61876,327.65041 -219.61876,327.65041 C -76.744594,328.55086 125.78146,220.48075 125.78138,88.454235 C 125.78138,-43.572302 -33.655436,-150.68036 -219.61876,-150.68038 z "
         id="path6711"
         sodipodi:nodetypes="cccc" />
      <path
         sodipodi:nodetypes="cccc"
         id="path6713"
         d="M -1559.2523,-150.68038 C -1559.2523,-150.68038 -1559.2523,327.65041 -1559.2523,327.65041 C -1702.1265,328.55086 -1904.6525,220.48075 -1904.6525,88.454235 C -1904.6525,-43.572302 -1745.2157,-150.68036 -1559.2523,-150.68038 z "
         style="opacity:0.40206185;color:black;fill:url(#radialGradient6719);fill-opacity:1;fill-rule:nonzero;stroke:none;stroke-width:1;stroke-linecap:round;stroke-linejoin:miter;marker:none;marker-start:none;marker-mid:none;marker-end:none;stroke-miterlimit:4;stroke-dasharray:none;stroke-dashoffset:0;stroke-opacity:1;visibility:visible;display:inline;overflow:visible" />
    </g>
    <g
       id="g6865"
       transform="matrix(1.518738e-2,0,0,2.086758e-2,42.2582,21.9036)">
      <rect
         y="-150.69685"
         x="-1559.2523"
         height="478.35718"
         width="1339.6335"
         id="rect6867"
         style="opacity:0.40206185;color:black;fill:url(#linearGradient6873);fill-opacity:1;fill-rule:nonzero;stroke:none;stroke-width:1;stroke-linecap:round;stroke-linejoin:miter;marker:none;marker-start:none;marker-mid:none;marker-end:none;stroke-miterlimit:4;stroke-dasharray:none;stroke-dashoffset:0;stroke-opacity:1;visibility:visible;display:inline;overflow:visible" />
      <path
         sodipodi:nodetypes="cccc"
         id="path6869"
         d="M -219.61876,-150.68038 C -219.61876,-150.68038 -219.61876,327.65041 -219.61876,327.65041 C -76.744594,328.55086 125.78146,220.48075 125.78138,88.454235 C 125.78138,-43.572302 -33.655436,-150.68036 -219.61876,-150.68038 z "
         style="opacity:0.40206185;color:black;fill:url(#radialGradient6875);fill-opacity:1;fill-rule:nonzero;stroke:none;stroke-width:1;stroke-linecap:round;stroke-linejoin:miter;marker:none;marker-start:none;marker-mid:none;marker-end:none;stroke-miterlimit:4;stroke-dasharray:none;stroke-dashoffset:0;stroke-opacity:1;visibility:visible;display:inline;overflow:visible" />
      <path
         style="opacity:0.40206185;color:black;fill:url(#radialGradient6877);fill-opacity:1;fill-rule:nonzero;stroke:none;stroke-width:1;stroke-linecap:round;stroke-linejoin:miter;marker:none;marker-start:none;marker-mid:none;marker-end:none;stroke-miterlimit:4;stroke-dasharray:none;stroke-dashoffset:0;stroke-opacity:1;visibility:visible;display:inline;overflow:visible"
         d="M -1559.2523,-150.68038 C -1559.2523,-150.68038 -1559.2523,327.65041 -1559.2523,327.65041 C -1702.1265,328.55086 -1904.6525,220.48075 -1904.6525,88.454235 C -1904.6525,-43.572302 -1745.2157,-150.68036 -1559.2523,-150.68038 z "
         id="path6871"
         sodipodi:nodetypes="cccc" />
    </g>
    <path
       sodipodi:type="arc"
       style="opacity:0.12025315;color:#000000;fill:url(#radialGradient29439);fill-opacity:1.0000000;fill-rule:nonzero;stroke:none;stroke-width:1.0000000;stroke-linecap:butt;stroke-linejoin:miter;stroke-miterlimit:4.0000000;stroke-dashoffset:0.0000000;stroke-opacity:1.0000000;marker:none;marker-start:none;marker-mid:none;marker-end:none;visibility:visible;display:block;overflow:visible"
       id="path29431"
       sodipodi:cx="29.496454"
       sodipodi:cy="27.645426"
       sodipodi:rx="11.515739"
       sodipodi:ry="3.9901025"
       d="M 41.012194 27.645426 A 11.515739 3.9901025 0 1 1  17.980715,27.645426 A 11.515739 3.9901025 0 1 1  41.012194 27.645426 z"
       transform="matrix(1.372807,0.000000,0.000000,1.092410,-10.33736,0.235623)" />
    <path
       style="color:#000000;fill:url(#linearGradient29429);fill-opacity:1.0000000;fill-rule:nonzero;stroke:#787878;stroke-width:0.99999982;stroke-linecap:butt;stroke-linejoin:miter;stroke-miterlimit:4.0000000;stroke-dashoffset:0.0000000;stroke-opacity:1.0000000;marker:none;marker-start:none;marker-mid:none;marker-end:none;visibility:visible;display:block;overflow:visible"
       d="M 18.401556,6.5708568 C 17.330237,6.5708568 16.480907,7.4342708 16.480907,8.4844229 L 16.480907,23.546039 C 16.480907,24.596191 17.330237,25.428741 18.401556,25.428741 L 32.538786,25.428741 C 33.395105,26.532444 35.061504,28.321947 39.056397,29.811425 C 37.277778,27.762498 37.281568,26.371064 37.482095,25.428741 L 40.378811,25.428741 C 41.450128,25.428741 42.330943,24.596191 42.330945,23.546039 L 42.330945,8.4844229 C 42.330945,7.4342710 41.450128,6.5708568 40.378811,6.5708568 L 18.401556,6.5708568 z "
       id="rect29408" />
    <path
       id="path29445"
       d="M 18.813100,7.5755336 C 17.894941,7.5755336 17.520588,8.0124648 17.520588,8.9124830 L 17.520588,22.780475 C 17.520588,23.680493 18.248494,24.394018 19.166653,24.394018 L 33.050535,24.394018 C 33.784431,25.339932 34.353965,26.368524 36.565549,27.493537 C 36.152377,26.596163 36.500603,25.342181 36.782053,24.394018 L 40.274795,24.394018 C 41.192952,24.394018 41.291243,24.034046 41.291245,23.134028 L 41.291245,8.9124830 C 41.291245,8.0124650 41.041429,7.6260413 40.123272,7.6260413 L 18.813100,7.5755336 z "
       style="color:#000000;fill:none;fill-opacity:1.0000000;fill-rule:nonzero;stroke:#ffffff;stroke-width:0.99999940;stroke-linecap:butt;stroke-linejoin:miter;stroke-miterlimit:4.0000000;stroke-dashoffset:0.0000000;stroke-opacity:1.0000000;marker:none;marker-start:none;marker-mid:none;marker-end:none;visibility:visible;display:block;overflow:visible"
       sodipodi:nodetypes="cccccccccccc" />
    <path
       id="path29441"
       d="M 29.775522,15.464360 C 30.814596,15.464360 31.638363,16.334970 31.638363,17.393874 L 31.638363,32.581013 C 31.638363,33.639917 30.814596,34.479406 29.775522,34.479406 L 16.063794,34.479406 C 15.233249,35.592307 13.617005,37.396724 9.7423514,38.898615 C 11.467436,36.832612 11.463760,35.429582 11.269269,34.479406 L 8.4597394,34.479406 C 7.4206669,34.479406 6.5663627,33.639917 6.5663607,32.581013 L 6.5663607,17.393874 C 6.5663607,16.334970 7.4206669,15.464360 8.4597394,15.464360 L 29.775522,15.464360 z "
       style="color:#000000;fill:url(#linearGradient29443);fill-opacity:1.0000000;fill-rule:nonzero;stroke:#787878;stroke-width:0.99999946;stroke-linecap:butt;stroke-linejoin:miter;stroke-miterlimit:4.0000000;stroke-dashoffset:0.0000000;stroke-opacity:1.0000000;marker:none;marker-start:none;marker-mid:none;marker-end:none;visibility:visible;display:block;overflow:visible" />
    <path
       style="color:#000000;fill:none;fill-opacity:1.0000000;fill-rule:nonzero;stroke:#ffffff;stroke-width:0.99999988;stroke-linecap:butt;stroke-linejoin:miter;stroke-miterlimit:4.0000000;stroke-dashoffset:0.0000000;stroke-opacity:1.0000000;marker:none;marker-start:none;marker-mid:none;marker-end:none;visibility:visible;display:block;overflow:visible"
       d="M 29.389156,16.452895 C 30.331609,16.452895 30.624208,16.914249 30.624208,17.874689 L 30.624208,32.078936 C 30.624208,33.039376 30.382116,33.447250 29.439663,33.447250 L 15.538226,33.447250 C 14.784911,34.456666 13.470480,36.042788 12.026931,36.697916 C 12.429930,35.531131 12.275072,34.561610 12.199682,33.447250 L 8.7927724,33.447250 C 7.8503201,33.447250 7.5805314,33.039376 7.5805296,32.078936 L 7.5805296,18.000958 C 7.5805296,17.040518 7.8503201,16.452895 8.7927724,16.452895 L 29.389156,16.452895 z "
       id="path29449"
       sodipodi:nodetypes="cccccccccccc" />
  </g>
</svg>

<svg xmlns="http://www.w3.org/2000/svg" xmlns:xlink="http://www.w3.org/1999/xlink" viewBox="0 0 48 48"><defs><linearGradient xlink:href="#4" id="5" gradientUnits="userSpaceOnUse" x1="26.01" y1="10.916" x2="39.04" y2="26.26" gradientTransform="matrix(1.0076 0 0 .98765-3.072.275)"/><linearGradient id="3" gradientUnits="userSpaceOnUse" gradientTransform="matrix(2.77439 0 0 1.96971-1892.18-872.89)" y1="366.65" x2="0" y2="609.51"><stop stop-opacity="0"/><stop offset=".5"/><stop offset="1" stop-opacity="0"/></linearGradient><linearGradient id="4"><stop stop-color="#f5f5f5"/><stop offset="1" stop-color="#e9e9e9"/></linearGradient><linearGradient xlink:href="#4" id="7" gradientUnits="userSpaceOnUse" gradientTransform="matrix(-.97723 0 0 .99588 50.603 9.116)" x1="35" y1="10.957" x2="27.27" y2="24.14"/><linearGradient id="1"><stop/><stop offset="1" stop-opacity="0"/></linearGradient><radialGradient xlink:href="#1" id="0" gradientUnits="userSpaceOnUse" gradientTransform="matrix(-2.77439 0 0 1.96971 112.76-872.89)" cx="605.71" cy="486.65" r="117.14"/><radialGradient id="6" cx="29.496" cy="27.645" r="11.516" gradientTransform="matrix(1 0 0 .34649 0 18.07)" gradientUnits="userSpaceOnUse"><stop/><stop offset="1" stop-opacity="0"/></radialGradient><radialGradient xlink:href="#1" id="2" gradientUnits="userSpaceOnUse" gradientTransform="matrix(2.77439 0 0 1.96971-1891.63-872.89)" cx="605.71" cy="486.65" r="117.14"/></defs><g transform="matrix(.01519 0 0 .02087 32.508 31.904)" opacity=".629"><path opacity=".402" color="#000" fill="url(#3)" d="m-1559.25-150.7h1339.63v478.36h-1339.63z" id="8"/><path d="m-219.62-150.68c0 0 0 478.33 0 478.33 142.87.9 345.4-107.17 345.4-239.2 0-132.03-159.44-239.13-345.4-239.13" opacity=".402" color="#000" fill="url(#2)" id="9"/><path d="m-1559.25-150.68c0 0 0 478.33 0 478.33-142.87.9-345.4-107.17-345.4-239.2 0-132.03 159.44-239.13 345.4-239.13" opacity=".402" color="#000" fill="url(#0)" id="A"/></g><g transform="matrix(.01519 0 0 .02087 42.26 21.904)"><use xlink:href="#8"/><use xlink:href="#9"/><use xlink:href="#A"/></g><g display="block" color="#000"><path d="M41.01219 27.645426A11.515739 3.990102 0 1 1 17.980715 27.645426 11.515739 3.990102 0 1 1 41.01219 27.645426" transform="matrix(1.37281 0 0 1.09241-10.337.236)" opacity=".12" fill="url(#6)"/><path d="m18.402 6.571c-1.071 0-1.921.863-1.921 1.914v15.06c0 1.05.849 1.883 1.921 1.883h14.14c.856 1.104 2.523 2.893 6.518 4.383-1.779-2.049-1.775-3.44-1.574-4.383h2.897c1.071 0 1.952-.833 1.952-1.883v-15.06c0-1.05-.881-1.914-1.952-1.914h-21.977z" fill="url(#5)" stroke="#787878"/><path d="m18.813 7.576c-.918 0-1.293.437-1.293 1.337v13.868c0 .9.728 1.614 1.646 1.614h13.884c.734.946 1.303 1.975 3.515 3.1-.413-.897-.065-2.151.217-3.1h3.493c.918 0 1.016-.36 1.016-1.26v-14.222c0-.9-.25-1.286-1.168-1.286l-21.31-.051z" fill="none" stroke="#fff"/><path d="m29.776 15.464c1.039 0 1.863.871 1.863 1.93v15.187c0 1.059-.824 1.898-1.863 1.898h-13.712c-.831 1.113-2.447 2.917-6.321 4.419 1.725-2.066 1.721-3.469 1.527-4.419h-2.81c-1.039 0-1.893-.839-1.893-1.898v-15.187c0-1.059.854-1.93 1.893-1.93h21.316z" fill="url(#7)" stroke="#787878"/><path d="m29.389 16.453c.942 0 1.235.461 1.235 1.422v14.204c0 .96-.242 1.368-1.185 1.368h-13.901c-.753 1.01-2.068 2.596-3.511 3.251.403-1.167.248-2.136.173-3.251h-3.407c-.942 0-1.212-.408-1.212-1.368v-14.08c0-.96.27-1.548 1.212-1.548h20.596z" fill="none" stroke="#fff"/></g></svg>
